public/home/dao-it/icons/ens.svg

<svg width="40" height="40" viewBox="0 0 40 40" fill="none" xmlns="http://www.w3.org/2000/svg">
<mask id="mask0_2606_44" style="mask-type:luminance" maskUnits="userSpaceOnUse" x="0" y="0" width="40" height="40">
<path d="M39.893 0V39.893H0V0H39.893Z" fill="white"/>
</mask>
<g mask="url(#mask0_2606_44)">
<path d="M20 0C23.9556 0 27.8224 1.17298 31.1114 3.37061C34.4004 5.56824 36.9638 8.69181 38.4776 12.3463C39.9913 16.0009 40.3874 20.0222 39.6157 23.9018C38.844 27.7814 36.9392 31.3451 34.1421 34.1421C31.3451 36.9392 27.7814 38.844 23.9018 39.6157C20.0222 40.3874 16.0009 39.9913 12.3463 38.4776C8.69181 36.9638 5.56824 34.4004 3.37061 31.1114C1.17298 27.8224 0 23.9556 0 20C0 14.6957 2.10714 9.60859 5.85786 5.85786C9.60859 2.10714 14.6957 0 20 0Z" fill="#DFE225"/>
</g>
<path fill-rule="evenodd" clip-rule="evenodd" d="M20.4125 8.22828C20.3282 8.09321 20.4834 7.93519 20.6092 8.02799L25.8757 11.9042C29.1951 14.3471 30.7234 18.7089 29.6712 22.8194C29.5979 23.1066 29.5121 23.3901 29.4143 23.6691C29.3623 23.817 29.1551 23.7851 29.1446 23.6278C29.0558 22.2892 28.1394 20.759 27.4741 19.6485C27.3554 19.45 27.2446 19.2652 27.148 19.0971C26.5013 17.9725 21.8207 10.48 20.4125 8.22828ZM13.4395 19.1296L19.7435 8.22313C19.8166 8.0963 19.6847 7.94885 19.5596 8.01742C18.4579 8.62165 15.4841 10.3696 13.1497 12.8211C10.5913 15.5079 12.6589 18.4555 13.2137 19.1484C13.275 19.225 13.39 19.2155 13.4393 19.1299M19.5873 31.7722C19.6717 31.9071 19.5167 32.0648 19.3907 31.9723L14.1242 28.0961C10.8048 25.6532 9.27647 21.2913 10.3289 17.1808C10.4123 16.855 10.5015 16.5699 10.5856 16.3312C10.6378 16.183 10.8447 16.2152 10.8553 16.3725C10.944 17.7111 11.8604 19.2412 12.5258 20.3517C12.6447 20.5502 12.7553 20.7351 12.8519 20.9029C13.4986 22.0278 18.1791 29.5203 19.5873 31.7722ZM20.2574 31.7759L26.5614 20.8694C26.5729 20.8496 26.5887 20.8329 26.6075 20.8208C26.6263 20.8087 26.6476 20.8014 26.6696 20.7996C26.6916 20.7978 26.7137 20.8015 26.7341 20.8104C26.7545 20.8193 26.7726 20.8331 26.7869 20.8508C27.3419 21.5434 29.4096 24.4914 26.8511 27.1779C24.5165 29.6294 21.543 31.3773 20.441 31.9816C20.3159 32.0501 20.1843 31.9024 20.2574 31.7759Z" fill="#242424"/>
</svg>

<svg viewBox="0 0 40 40" xmlns="http://www.w3.org/2000/svg"><mask id="a" style="mask-type:luminance" maskUnits="userSpaceOnUse" x="0" y="0" width="40" height="40"><path d="M39.893 0v39.893H0V0z" fill="#fff"/></mask><g mask="url(#a)"><path d="M20 0a20 20 0 1 1 0 40 20 20 0 0 1 0-40" fill="#DFE225"/></g><path fill-rule="evenodd" clip-rule="evenodd" d="M20.413 8.228c-.085-.135.07-.293.196-.2l5.267 3.876c3.32 2.443 4.847 6.805 3.795 10.915q-.11.432-.257.85c-.052.148-.259.116-.27-.041-.088-1.339-1.005-2.869-1.67-3.98q-.18-.298-.326-.55c-.647-1.125-5.327-8.618-6.735-10.87M13.44 19.13l6.304-10.907c.073-.127-.06-.274-.184-.206-1.102.605-4.076 2.353-6.41 4.804-2.559 2.687-.491 5.635.064 6.327a.136.136 0 0 0 .225-.018m6.148 12.642c.085.135-.07.293-.196.2l-5.267-3.876c-3.32-2.443-4.848-6.805-3.795-10.915a10 10 0 0 1 .257-.85c.052-.148.259-.116.27.041.088 1.34 1.004 2.87 1.67 3.98q.18.298.326.55c.647 1.126 5.327 8.618 6.735 10.87m.67.004 6.304-10.907a.14.14 0 0 1 .047-.048.135.135 0 0 1 .179.03c.555.692 2.623 3.64.064 6.327-2.334 2.451-5.308 4.2-6.41 4.804-.125.068-.257-.08-.184-.206" fill="#242424"/></svg>
